X:256
T: IM ANFANG WARS AUF ERDEN
N: B0736
O: Europa, Mitteleuropa, Deutschland
R: Lob - Lied, religioes
M: 4/4
L: 1/8
K: G
d2 | B2G2A2B2 | c3AF2
D2 | G2G2c2B2 | A4z2
d2 | B2G2A2B2 | c3AF2
D2 | G2GAB2A2 | G4z4
d3dd2d2 | e4e2g2 | f2d2e2^c2 | d4z2
d2 | g4f4 | e4d4 | d2c2B2A2 | A4B2
d2 | g4f4 | e4d4 | d2c2B2A2 | A4G2

